dist/uploads/catalog-sidebar-icons/1/i-catalog-4.svg

<svg width="26" height="27" viewBox="0 0 26 27" fill="none" xmlns="http://www.w3.org/2000/svg">
<path d="M4 21H22V3H4V21ZM17.0988 10.5C17.9422 10.5 18.6262 11.4382 18.6262 12.0597C18.6262 12.6811 17.9422 13.5 17.0988 13.5C16.2553 13.5 15.5714 12.6802 15.5714 12.0587C15.5714 11.4382 16.2553 10.5 17.0988 10.5Z" fill="#FFC800"/>
<path d="M26 26.9999V24.107V21.2141V0H20.8H18.2H16.9001H0V21.2142V24.1071V27H3.90007V24.107H22.1001V26.9999H26ZM3.90007 22.1784H2.60014V21.2142V1.92856H23.4001V21.2142V22.1784H22.1002H3.90007Z" fill="#FFC800"/>
</svg>

<svg width="26" height="27" fill="none" xmlns="http://www.w3.org/2000/svg"><path d="M4 21h18V3H4v18zm13.099-10.5c.843 0 1.527.938 1.527 1.56 0 .621-.684 1.44-1.527 1.44-.844 0-1.528-.82-1.528-1.441 0-.62.684-1.559 1.528-1.559z" fill="#FFC800"/><path d="M26 27V0H0v27h3.9v-2.893h18.2V27H26zM3.9 22.178H2.6V1.93h20.8v20.249H3.9z" fill="#FFC800"/></svg>
